resources/svg/pinterest-o.svg

<svg xmlns="http://www.w3.org/2000/svg" viewBox="0 0 15 15" fill="none"><path d="M4.5 13.5L7.5 6.5M4.26389 9.5C3.78885 8.96924 3.5 8.26835 3.5 7.5V7C3.5 5.067 5.067 3.5 7 3.5H8C9.933 3.5 11.5 5.067 11.5 7V7.5C11.5 9.15685 10.1569 10.5 8.5 10.5C7.60421 10.5 6.80893 9.92679 6.52566 9.07697L6.5 9M7.5 14.5C3.63401 14.5 0.5 11.366 0.5 7.5C0.5 3.63401 3.63401 0.5 7.5 0.5C11.366 0.5 14.5 3.63401 14.5 7.5C14.5 11.366 11.366 14.5 7.5 14.5Z" stroke="black"/></svg>

<svg xmlns="http://www.w3.org/2000/svg" viewBox="0 0 15 15" fill="none"><path d="M4.5 13.5l3-7m-3.236 3a2.989 2.989 0 01-.764-2V7A3.5 3.5 0 017 3.5h1A3.5 3.5 0 0111.5 7v.5a3 3 0 01-3 3 2.081 2.081 0 01-1.974-1.423L6.5 9m1 5.5a7 7 0 110-14 7 7 0 010 14z" stroke="currentColor"/></svg>
